docs/images/typeform.svg

<svg height="95" viewBox="0 0 358 95" width="358" xmlns="http://www.w3.org/2000/svg"><g fill="none" fill-rule="evenodd"><g fill="#33393f"><path d="m0 23.838v-10.471h46.4v10.471h-16.974v46.162h-12.452v-46.162z"/><path d="m58.252 82.215c-2.169 1.428-5.183 2.141-9.042 2.141-1.164 0-2.314-.04-3.45-.12-1.138-.079-2.288-.172-3.45-.277v-9.279c1.057.105 2.141.211 3.252.316 1.11.106 2.22.132 3.331.08 1.479-.158 2.578-.741 3.292-1.745.713-1.005 1.07-2.115 1.07-3.331 0-.898-.159-1.746-.476-2.539l-14.356-38.468h11.977l9.28 28.078h.158l8.963-28.078h11.659l-17.132 46.083c-1.217 3.33-2.909 5.71-5.076 7.139"/><path d="m95.168 28.993v5.235h.159c1.374-2.221 3.119-3.834 5.234-4.838s4.442-1.507 6.981-1.507c3.224 0 6 .608 8.328 1.824 2.326 1.217 4.256 2.83 5.79 4.838 1.533 2.01 2.669 4.35 3.41 7.02.74 2.671 1.111 5.46 1.111 8.368 0 2.75-.371 5.393-1.111 7.931-.741 2.538-1.864 4.786-3.371 6.742s-3.384 3.517-5.631 4.679c-2.248 1.163-4.878 1.746-7.892 1.746-2.538 0-4.878-.515-7.019-1.547-2.142-1.031-3.901-2.55-5.275-4.56h-.159v20.072h-11.263v-56.003zm14.639 32.481c1.242-.74 2.247-1.705 3.014-2.895.766-1.19 1.309-2.577 1.626-4.164.318-1.587.476-3.199.476-4.839 0-1.639-.172-3.252-.515-4.838-.345-1.586-.912-3.001-1.706-4.244-.793-1.241-1.811-2.246-3.054-3.014-1.242-.765-2.763-1.15-4.56-1.15-1.852 0-3.398.385-4.64 1.15-1.243.768-2.248 1.76-3.014 2.975-.767 1.217-1.308 2.617-1.626 4.203-.317 1.586-.476 3.227-.476 4.918 0 1.64.171 3.252.516 4.839.343 1.587.898 2.974 1.665 4.164.766 1.19 1.785 2.155 3.054 2.895 1.269.741 2.802 1.11 4.6 1.11 1.851 0 3.397-.369 4.64-1.11z"/><path d="m144.219 60.164c1.692 1.64 4.125 2.459 7.297 2.459 2.274 0 4.23-.567 5.87-1.705 1.638-1.137 2.643-2.34 3.013-3.609h9.915c-1.587 4.918-4.02 8.435-7.297 10.548-3.279 2.116-7.244 3.174-11.897 3.174-3.226 0-6.135-.515-8.724-1.547-2.592-1.031-4.787-2.498-6.583-4.402-1.798-1.903-3.186-4.177-4.165-6.82-.979-2.645-1.467-5.553-1.467-8.726 0-3.066.502-5.921 1.507-8.565 1.004-2.645 2.432-4.931 4.283-6.862 1.85-1.929 4.057-3.45 6.623-4.56 2.564-1.112 5.405-1.666 8.526-1.666 3.49 0 6.53.674 9.12 2.022 2.591 1.349 4.72 3.161 6.385 5.433 1.666 2.274 2.868 4.866 3.609 7.773.74 2.91 1.004 5.949.793 9.121h-29.584c.159 3.649 1.084 6.293 2.776 7.932zm12.731-21.573c-1.349-1.481-3.399-2.222-6.147-2.222-1.799 0-3.292.305-4.482.912-1.19.61-2.141 1.363-2.855 2.261-.714.899-1.217 1.853-1.506 2.856-.292 1.004-.464 1.903-.517 2.696h18.322c-.529-2.856-1.468-5.022-2.815-6.503z"/><path d="m171.167 36.528v-7.535h6.741v-3.173c0-3.648 1.136-6.635 3.411-8.963 2.273-2.326 5.71-3.49 10.31-3.49 1.004 0 2.01.041 3.014.119 1.004.08 1.983.147 2.935.199v8.407c-1.322-.157-2.696-.238-4.124-.238-1.534 0-2.631.358-3.292 1.072-.662.713-.991 1.917-.991 3.609v2.458h7.773v7.535h-7.773v33.472h-11.263v-33.472z"/><path d="m198.434 40.613c1.003-2.67 2.431-4.944 4.282-6.822 1.85-1.875 4.071-3.33 6.663-4.361 2.59-1.032 5.498-1.547 8.724-1.547 3.224 0 6.148.515 8.766 1.547 2.618 1.031 4.853 2.486 6.702 4.361 1.852 1.878 3.28 4.152 4.284 6.822 1.003 2.67 1.507 5.645 1.507 8.923 0 3.279-.504 6.24-1.507 8.884-1.004 2.645-2.432 4.904-4.284 6.781-1.849 1.877-4.084 3.319-6.702 4.322-2.618 1.004-5.542 1.508-8.766 1.508-3.226 0-6.134-.504-8.724-1.508-2.592-1.003-4.813-2.445-6.663-4.322-1.851-1.877-3.279-4.136-4.282-6.781-1.006-2.644-1.508-5.605-1.508-8.884 0-3.278.502-6.253 1.508-8.923zm10.231 13.721c.317 1.56.859 2.963 1.627 4.204.765 1.243 1.784 2.235 3.053 2.975 1.268.741 2.855 1.11 4.758 1.11 1.904 0 3.503-.369 4.798-1.11 1.295-.74 2.327-1.732 3.094-2.975.767-1.241 1.31-2.644 1.629-4.204.316-1.559.475-3.158.475-4.798 0-1.638-.159-3.253-.475-4.839-.319-1.586-.862-2.986-1.629-4.203-.767-1.215-1.799-2.207-3.094-2.975-1.295-.765-2.894-1.15-4.798-1.15-1.903 0-3.49.385-4.758 1.15-1.269.768-2.288 1.76-3.053 2.975-.768 1.217-1.31 2.617-1.627 4.203s-.476 3.201-.476 4.839c0 1.64.159 3.239.476 4.798z"/><path d="m254.135 28.993v7.614h.158c.527-1.269 1.242-2.445 2.141-3.529.898-1.084 1.929-2.01 3.093-2.775 1.164-.767 2.407-1.362 3.729-1.785 1.32-.423 2.695-.635 4.123-.635.742 0 1.561.133 2.461.396v10.47c-.53-.105-1.166-.198-1.905-.277-.742-.079-1.454-.12-2.142-.12-2.063 0-3.807.345-5.234 1.032-1.428.688-2.579 1.626-3.45 2.815-.873 1.19-1.496 2.578-1.865 4.164s-.554 3.305-.554 5.157v18.48h-11.262v-41.007z"/><path d="m284.468 28.993v5.552h.158c1.48-2.113 3.266-3.754 5.355-4.918 2.088-1.161 4.481-1.744 7.178-1.744 2.59 0 4.957.503 7.098 1.507s3.767 2.776 4.879 5.314c1.215-1.798 2.867-3.384 4.957-4.759 2.088-1.375 4.56-2.062 7.416-2.062 2.168 0 4.176.265 6.027.793 1.852.529 3.438 1.376 4.76 2.538 1.32 1.164 2.351 2.684 3.094 4.56.738 1.878 1.109 4.139 1.109 6.783v27.443h-11.264v-23.24c0-1.375-.052-2.67-.158-3.887-.105-1.215-.396-2.272-.873-3.172-.475-.898-1.176-1.612-2.1-2.142-.927-.528-2.181-.793-3.767-.793-1.588 0-2.869.305-3.848.912-.98.609-1.746 1.402-2.3 2.38-.555.979-.926 2.089-1.11 3.331-.187 1.244-.277 2.498-.277 3.767v22.844h-11.264v-23.002c0-1.217-.027-2.419-.08-3.609s-.277-2.287-.674-3.291c-.396-1.004-1.058-1.811-1.982-2.42-.926-.607-2.289-.912-4.086-.912-.53 0-1.229.119-2.102.357s-1.718.687-2.537 1.349c-.82.661-1.521 1.613-2.103 2.854-.582 1.244-.871 2.869-.871 4.879v23.795h-11.264v-41.007z"/></g><path d="m348 0h10v95h-10z" fill="#89c6be"/></g></svg>

<?xml version="1.0" encoding="UTF-8" standalone="no"?>
<svg width="358px" height="95px" viewBox="0 0 358 95" version="1.1" xmlns="http://www.w3.org/2000/svg" xmlns:xlink="http://www.w3.org/1999/xlink" xmlns:sketch="http://www.bohemiancoding.com/sketch/ns">
    <title>Untitled 33</title>
    <description>Created with Sketch (http://www.bohemiancoding.com/sketch)</description>
    <defs></defs>
    <g id="Page-1" stroke="none" stroke-width="1" fill="none" fill-rule="evenodd" sketch:type="MSPage">
        <g id="Typeform_logo_with_slogan_master_print" sketch:type="MSLayerGroup">
            <path d="M0,23.838 L0,13.367 L46.4,13.367 L46.4,23.838 L29.426,23.838 L29.426,70 L16.974,70 L16.974,23.838 L0,23.838" id="Fill-1" fill="#33393F" sketch:type="MSShapeGroup"></path>
            <path d="M58.252,82.215 C56.083,83.643 53.069,84.356 49.21,84.356 C48.046,84.356 46.896,84.316 45.76,84.236 C44.622,84.157 43.472,84.064 42.31,83.959 L42.31,74.68 C43.367,74.785 44.451,74.891 45.562,74.996 C46.672,75.102 47.782,75.128 48.893,75.076 C50.372,74.918 51.471,74.335 52.185,73.331 C52.898,72.326 53.255,71.216 53.255,70 C53.255,69.102 53.096,68.254 52.779,67.461 L38.423,28.993 L50.4,28.993 L59.68,57.071 L59.838,57.071 L68.801,28.993 L80.46,28.993 L63.328,75.076 C62.111,78.406 60.419,80.786 58.252,82.215" id="Fill-2" fill="#33393F" sketch:type="MSShapeGroup"></path>
            <path d="M95.168,28.993 L95.168,34.228 L95.327,34.228 C96.701,32.007 98.446,30.394 100.561,29.39 C102.676,28.386 105.003,27.883 107.542,27.883 C110.766,27.883 113.542,28.491 115.87,29.707 C118.196,30.924 120.126,32.537 121.66,34.545 C123.193,36.555 124.329,38.895 125.07,41.565 C125.81,44.236 126.181,47.025 126.181,49.933 C126.181,52.683 125.81,55.326 125.07,57.864 C124.329,60.402 123.206,62.65 121.699,64.606 C120.192,66.562 118.315,68.123 116.068,69.285 C113.82,70.448 111.19,71.031 108.176,71.031 C105.638,71.031 103.298,70.516 101.157,69.484 C99.015,68.453 97.256,66.934 95.882,64.924 L95.723,64.924 L95.723,84.996 L84.46,84.996 L84.46,28.993 L95.168,28.993 L95.168,28.993 Z M109.807,61.474 C111.049,60.734 112.054,59.769 112.821,58.579 C113.587,57.389 114.13,56.002 114.447,54.415 C114.765,52.828 114.923,51.216 114.923,49.576 C114.923,47.937 114.751,46.324 114.408,44.738 C114.063,43.152 113.496,41.737 112.702,40.494 C111.909,39.253 110.891,38.248 109.648,37.48 C108.406,36.715 106.885,36.33 105.088,36.33 C103.236,36.33 101.69,36.715 100.448,37.48 C99.205,38.248 98.2,39.24 97.434,40.455 C96.667,41.672 96.126,43.072 95.808,44.658 C95.491,46.244 95.332,47.885 95.332,49.576 C95.332,51.216 95.503,52.828 95.848,54.415 C96.191,56.002 96.746,57.389 97.513,58.579 C98.279,59.769 99.298,60.734 100.567,61.474 C101.836,62.215 103.369,62.584 105.167,62.584 C107.018,62.584 108.564,62.215 109.807,61.474 L109.807,61.474 Z" id="Fill-3" fill="#33393F" sketch:type="MSShapeGroup"></path>
            <path d="M144.219,60.164 C145.911,61.804 148.344,62.623 151.516,62.623 C153.79,62.623 155.746,62.056 157.386,60.918 C159.024,59.781 160.029,58.578 160.399,57.309 L170.314,57.309 C168.727,62.227 166.294,65.744 163.017,67.857 C159.738,69.973 155.773,71.031 151.12,71.031 C147.894,71.031 144.985,70.516 142.396,69.484 C139.804,68.453 137.609,66.986 135.813,65.082 C134.015,63.179 132.627,60.905 131.648,58.262 C130.669,55.617 130.181,52.709 130.181,49.536 C130.181,46.47 130.683,43.615 131.688,40.971 C132.692,38.326 134.12,36.04 135.971,34.109 C137.821,32.18 140.028,30.659 142.594,29.549 C145.158,28.437 147.999,27.883 151.12,27.883 C154.61,27.883 157.65,28.557 160.24,29.905 C162.831,31.254 164.96,33.066 166.625,35.338 C168.291,37.612 169.493,40.204 170.234,43.111 C170.974,46.021 171.238,49.06 171.027,52.232 L141.443,52.232 C141.602,55.881 142.527,58.525 144.219,60.164 L144.219,60.164 Z M156.95,38.591 C155.601,37.11 153.551,36.369 150.803,36.369 C149.004,36.369 147.511,36.674 146.321,37.281 C145.131,37.891 144.18,38.644 143.466,39.542 C142.752,40.441 142.249,41.395 141.96,42.398 C141.668,43.402 141.496,44.301 141.443,45.094 L159.765,45.094 C159.236,42.238 158.297,40.072 156.95,38.591 L156.95,38.591 Z" id="Fill-4" fill="#33393F" sketch:type="MSShapeGroup"></path>
            <path d="M171.167,36.528 L171.167,28.993 L177.908,28.993 L177.908,25.82 C177.908,22.172 179.044,19.185 181.319,16.857 C183.592,14.531 187.029,13.367 191.629,13.367 C192.633,13.367 193.639,13.408 194.643,13.486 C195.647,13.566 196.626,13.633 197.578,13.685 L197.578,22.092 C196.256,21.935 194.882,21.854 193.454,21.854 C191.92,21.854 190.823,22.212 190.162,22.926 C189.5,23.639 189.171,24.843 189.171,26.535 L189.171,28.993 L196.944,28.993 L196.944,36.528 L189.171,36.528 L189.171,70 L177.908,70 L177.908,36.528 L171.167,36.528" id="Fill-5" fill="#33393F" sketch:type="MSShapeGroup"></path>
            <path d="M198.434,40.613 C199.437,37.943 200.865,35.669 202.716,33.791 C204.566,31.916 206.787,30.461 209.379,29.43 C211.969,28.398 214.877,27.883 218.103,27.883 C221.327,27.883 224.251,28.398 226.869,29.43 C229.487,30.461 231.722,31.916 233.571,33.791 C235.423,35.669 236.851,37.943 237.855,40.613 C238.858,43.283 239.362,46.258 239.362,49.536 C239.362,52.815 238.858,55.776 237.855,58.42 C236.851,61.065 235.423,63.324 233.571,65.201 C231.722,67.078 229.487,68.52 226.869,69.523 C224.251,70.527 221.327,71.031 218.103,71.031 C214.877,71.031 211.969,70.527 209.379,69.523 C206.787,68.52 204.566,67.078 202.716,65.201 C200.865,63.324 199.437,61.065 198.434,58.42 C197.428,55.776 196.926,52.815 196.926,49.536 C196.926,46.258 197.428,43.283 198.434,40.613 L198.434,40.613 Z M208.665,54.334 C208.982,55.894 209.524,57.297 210.292,58.538 C211.057,59.781 212.076,60.773 213.345,61.513 C214.613,62.254 216.2,62.623 218.103,62.623 C220.007,62.623 221.606,62.254 222.901,61.513 C224.196,60.773 225.228,59.781 225.995,58.538 C226.762,57.297 227.305,55.894 227.624,54.334 C227.94,52.775 228.099,51.176 228.099,49.536 C228.099,47.898 227.94,46.283 227.624,44.697 C227.305,43.111 226.762,41.711 225.995,40.494 C225.228,39.279 224.196,38.287 222.901,37.519 C221.606,36.754 220.007,36.369 218.103,36.369 C216.2,36.369 214.613,36.754 213.345,37.519 C212.076,38.287 211.057,39.279 210.292,40.494 C209.524,41.711 208.982,43.111 208.665,44.697 C208.348,46.283 208.189,47.898 208.189,49.536 C208.189,51.176 208.348,52.775 208.665,54.334 L208.665,54.334 Z" id="Fill-6" fill="#33393F" sketch:type="MSShapeGroup"></path>
            <path d="M254.135,28.993 L254.135,36.607 L254.293,36.607 C254.82,35.338 255.535,34.162 256.434,33.078 C257.332,31.994 258.363,31.068 259.527,30.303 C260.691,29.536 261.934,28.941 263.256,28.518 C264.576,28.095 265.951,27.883 267.379,27.883 C268.121,27.883 268.94,28.016 269.84,28.279 L269.84,38.749 C269.31,38.644 268.674,38.551 267.935,38.472 C267.193,38.393 266.481,38.352 265.793,38.352 C263.73,38.352 261.986,38.697 260.559,39.384 C259.131,40.072 257.98,41.01 257.109,42.199 C256.236,43.389 255.613,44.777 255.244,46.363 C254.875,47.949 254.69,49.668 254.69,51.52 L254.69,70 L243.428,70 L243.428,28.993 L254.135,28.993" id="Fill-7" fill="#33393F" sketch:type="MSShapeGroup"></path>
            <path d="M284.468,28.993 L284.468,34.545 L284.626,34.545 C286.106,32.432 287.892,30.791 289.981,29.627 C292.069,28.466 294.462,27.883 297.159,27.883 C299.749,27.883 302.116,28.386 304.257,29.39 C306.398,30.394 308.024,32.166 309.136,34.704 C310.351,32.906 312.003,31.32 314.093,29.945 C316.181,28.57 318.653,27.883 321.509,27.883 C323.677,27.883 325.685,28.148 327.536,28.676 C329.388,29.205 330.974,30.052 332.296,31.214 C333.616,32.378 334.647,33.898 335.39,35.774 C336.128,37.652 336.499,39.913 336.499,42.557 L336.499,70 L325.235,70 L325.235,46.76 C325.235,45.385 325.183,44.09 325.077,42.873 C324.972,41.658 324.681,40.601 324.204,39.701 C323.729,38.803 323.028,38.089 322.104,37.559 C321.177,37.031 319.923,36.766 318.337,36.766 C316.749,36.766 315.468,37.071 314.489,37.678 C313.509,38.287 312.743,39.08 312.189,40.058 C311.634,41.037 311.263,42.147 311.079,43.389 C310.892,44.633 310.802,45.887 310.802,47.156 L310.802,70 L299.538,70 L299.538,46.998 C299.538,45.781 299.511,44.579 299.458,43.389 C299.405,42.199 299.181,41.102 298.784,40.098 C298.388,39.094 297.726,38.287 296.802,37.678 C295.876,37.071 294.513,36.766 292.716,36.766 C292.186,36.766 291.487,36.885 290.614,37.123 C289.741,37.361 288.896,37.81 288.077,38.472 C287.257,39.133 286.556,40.085 285.974,41.326 C285.392,42.57 285.103,44.195 285.103,46.205 L285.103,70 L273.839,70 L273.839,28.993 L284.468,28.993" id="Fill-8" fill="#33393F" sketch:type="MSShapeGroup"></path>
            <path d="M348,0 L358,0 L358,95 L348,95 L348,0 Z" id="Fill-9" fill="#89C6BE" sketch:type="MSShapeGroup"></path>
        </g>
    </g>
</svg>
